local/share/icons/dracula-icons-main/24/actions/zoom-pixels.svg

<?xml version="1.0" encoding="UTF-8"?>
<svg xmlns="http://www.w3.org/2000/svg" xmlns:xlink="http://www.w3.org/1999/xlink" width="24" height="24" viewBox="0 0 24 24">
<path fill-rule="nonzero" fill="rgb(100%, 100%, 100%)" fill-opacity="1" d="M 6 4 C 4.890625 4 4 4.890625 4 6 L 4 8 L 5 8 L 5 6 C 5 5.445312 5.445312 5 6 5 L 8 5 L 8 4 Z M 12 4 L 10 6 L 14 6 Z M 16 4 L 16 5 L 18 5 C 18.554688 5 19 5.445312 19 6 L 19 8 L 20 8 L 20 6 C 20 4.890625 19.109375 4 18 4 Z M 9 7 C 7.890625 7 7 7.890625 7 9 L 7 15 C 7 16.109375 7.890625 17 9 17 L 15 17 C 16.109375 17 17 16.109375 17 15 L 17 9 C 17 7.890625 16.109375 7 15 7 Z M 9 8 L 12 8 L 12 12 L 16 12 L 16 15 C 16 15.554688 15.554688 16 15 16 L 12 16 L 12 12 L 8 12 L 8 9 C 8 8.445312 8.445312 8 9 8 Z M 6 10 L 4 12 L 6 14 Z M 18 10 L 18 14 L 20 12 Z M 4 16 L 4 18 C 4 19.109375 4.890625 20 6 20 L 8 20 L 8 19 L 6 19 C 5.445312 19 5 18.554688 5 18 L 5 16 Z M 19 16 L 19 18 C 19 18.554688 18.554688 19 18 19 L 16 19 L 16 20 L 18 20 C 19.109375 20 20 19.109375 20 18 L 20 16 Z M 10 18 L 12 20 L 14 18 Z M 10 18 "/>
</svg>

<svg width="24" height="24" version="1.1" viewBox="0 0 24 24" xmlns="http://www.w3.org/2000/svg">
 <defs>
  <style id="current-color-scheme" type="text/css">.ColorScheme-Text {
        color:#FFFFFF;
      }</style>
 </defs>
 <path class="ColorScheme-Text" d="m6 4c-1.108 0-2 0.892-2 2v2h1v-2c0-0.554 0.446-1 1-1h2v-1zm6 0-2 2h4zm4 0v1h2c0.554 0 1 0.446 1 1v2h1v-2c0-1.108-0.892-2-2-2zm-7 3c-1.108 0-2 0.892-2 2v6c0 1.108 0.892 2 2 2h6c1.108 0 2-0.892 2-2v-6c0-1.108-0.892-2-2-2zm0 1h3v4h4v3c0 0.554-0.446 1-1 1h-3v-4h-4v-3c0-0.554 0.446-1 1-1zm-3 2-2 2 2 2zm12 0v4l2-2zm-14 6v2c0 1.108 0.892 2 2 2h2v-1h-2c-0.554 0-1-0.446-1-1v-2zm15 0v2c0 0.554-0.446 1-1 1h-2v1h2c1.108 0 2-0.892 2-2v-2zm-9 2 2 2 2-2z" fill="currentColor"/>
</svg>
